assets/img/scan_icon.svg

<svg height="24" viewBox="0 0 24 24" width="24" xmlns="http://www.w3.org/2000/svg"><path d="m4 9h-2v-5c0-1.1045695.8954305-2 2-2h5v2h-4c-.55228475 0-1 .44771525-1 1zm11-5v-2h5c1.1045695 0 2 .8954305 2 2v5h-2v-4c0-.55228475-.4477153-1-1-1zm5 11h2v5c0 1.1045695-.8954305 2-2 2h-5v-2h4c.5522847 0 1-.4477153 1-1zm-11 5v2h-5c-1.1045695 0-2-.8954305-2-2v-5h2v4c0 .5522847.44771525 1 1 1zm-3-13h2v10h-2zm4 0h2v10h-2zm4 0h4v10h-4z"/></svg>

<svg xmlns="http://www.w3.org/2000/svg" xmlns:xlink="http://www.w3.org/1999/xlink" width="24" height="24" viewBox="0 0 24 24">
  <defs>
    <path id="icon-scan-a" d="M4,9 L2,9 L2,4 C2,2.8954305 2.8954305,2 4,2 L9,2 L9,4 L5,4 C4.44771525,4 4,4.44771525 4,5 L4,9 Z M15,4 L15,2 L20,2 C21.1045695,2 22,2.8954305 22,4 L22,9 L20,9 L20,5 C20,4.44771525 19.5522847,4 19,4 L15,4 Z M20,15 L22,15 L22,20 C22,21.1045695 21.1045695,22 20,22 L15,22 L15,20 L19,20 C19.5522847,20 20,19.5522847 20,19 L20,15 Z M9,20 L9,22 L4,22 C2.8954305,22 2,21.1045695 2,20 L2,15 L4,15 L4,19 C4,19.5522847 4.44771525,20 5,20 L9,20 Z M6,7 L8,7 L8,17 L6,17 L6,7 Z M10,7 L12,7 L12,17 L10,17 L10,7 Z M14,7 L18,7 L18,17 L14,17 L14,7 Z"/>
  </defs>
  <g fill="none" fill-rule="evenodd">
    <use fill="#000" fill-rule="nonzero" xlink:href="#icon-scan-a"/>
  </g>
</svg>
